X:249
T:Miss Shepherd
C:James Scott Skinner
S:Jean-Michel Roch (Lanaudière, QC)
Z:gabie.letourneau@hotmail.ca
N:On TheSession. org, they play the B part first. But I wrote it exactly as I learnt it.
R:reel
M:4/4
L:1/8
K:Ador
^g|:aaed ^ccAF|GGDC B,G,G,^g|aaed ^ccA=c| BAGB A2^g2|
aaed ^ccAF|GGDC B,G,G,B,|A,B,CD EGAc|1 BAGB A2^g2 :|2BAGB A2G,2 ||
|:A,B,CD E2 DC|B,GFG DB,G,B,|A,B,CD EGAc|BAGB A3G, |
A,B,CD E2 DC|B,GFG DB,G,B,|A,B,CD EGAc|1BAGB A2G,2 :|2 BAGB A2^g2 |]
